images/google-plus.svg

<?xml version="1.0" encoding="UTF-8"?>
<svg width="25px" height="25px" viewBox="0 0 25 16" version="1.1" xmlns="http://www.w3.org/2000/svg" xmlns:xlink="http://www.w3.org/1999/xlink">
    <!-- Generator: sketchtool 50.2 (55047) - http://www.bohemiancoding.com/sketch -->
    <title>8A1B8CA1-8387-47F4-83C2-A7C95ED5425B</title>
    <desc>Created with sketchtool.</desc>
    <defs></defs>
    <g id="Symbols" stroke="none" stroke-width="1" fill="none" fill-rule="evenodd">
        <g id="Footer" transform="translate(-1067.000000, -192.000000)" fill="#DD4B39">
            <g id="Google-Plus" transform="translate(1067.000000, 192.000000)">
                <path d="M0.83615422,7.9127974 C0.900408188,4.06450607 4.43463041,0.694168614 8.27894787,0.822555158 C10.1207256,0.737133616 11.8522812,1.53948596 13.2630749,2.66649101 C12.6611701,3.3511345 12.037678,4.01111761 11.3712653,4.62813571 C9.6755193,3.45460643 7.26332882,3.11953026 5.56758279,4.47483455 C3.14117009,6.15453732 3.03094787,10.1205375 5.36440819,11.9286268 C7.63386851,13.9901842 11.9236463,12.9663969 12.5506939,9.81012171 C11.1289796,9.78876633 9.70396374,9.81012171 8.28250343,9.76385171 C8.27894787,8.91497514 8.27539232,8.06609856 8.27894787,7.21722198 C10.6553288,7.21010352 13.0317098,7.20654429 15.4116463,7.22434044 C15.5541225,9.22157746 15.2905034,11.347201 14.0648526,12.9986842 C12.2085987,15.6129393 8.48186851,16.3761401 5.5746939,15.2562535 C2.65685263,14.1434854 0.59031295,11.0583948 0.83615422,7.9127974" id="Fill-186"></path>
                <path d="M20.5972971,5.3877551 L22.7171701,5.3877551 C22.7207256,6.09756744 22.7242812,6.81068478 22.7313923,7.52049712 C23.4404717,7.52761558 24.1528526,7.52761558 24.861932,7.53473404 L24.861932,9.65679837 C24.1528526,9.66391683 23.4440272,9.66747606 22.7313923,9.67459452 C22.7242812,10.3879661 22.7207256,11.0977784 22.7171701,11.8073365 L20.5937415,11.8073365 C20.5866304,11.0977784 20.5866304,10.3879661 20.5795193,9.67815376 C19.8704399,9.67103529 19.157805,9.66391683 18.4489796,9.65679837 L18.4489796,7.53473404 C19.157805,7.52761558 19.8668844,7.52405635 20.5795193,7.52049712 C20.5830748,6.80712555 20.5901859,6.09756744 20.5972971,5.3877551" id="Fill-187"></path>
            </g>
        </g>
    </g>
</svg>

<svg xmlns="http://www.w3.org/2000/svg" width="25" height="25" viewBox="0 0 25 16"><title>8A1B8CA1-8387-47F4-83C2-A7C95ED5425B</title><desc>Created with sketchtool.</desc><g fill="none"><g fill="#DD4B39"><g><path d="M.84 7.9C.9 4.07 4.44.7 8.28.83c1.84-.08 3.57.72 4.98 1.85-.6.68-1.22 1.34-1.9 1.96-1.68-1.18-4.1-1.5-5.8-.16-2.42 1.68-2.53 5.65-.2 7.46 2.27 2.06 6.56 1.04 7.2-2.12-1.43 0-2.86 0-4.28-.04 0-.85 0-1.7 0-2.54 2.38 0 4.75 0 7.13 0 .15 2-.1 4.13-1.34 5.78-1.85 2.6-5.58 3.38-8.5 2.26C2.67 14.14.6 11.06.85 7.9"/><path d="M20.6 5.4h2.12c0 .7 0 1.4 0 2.12.72 0 1.43 0 2.14 0v2.14c-.7 0-1.42 0-2.13 0 0 .73 0 1.44 0 2.15h-2.14c0-.7 0-1.4-.02-2.12-.7 0-1.42-.02-2.13-.02V7.53c.7 0 1.42 0 2.13 0 0-.72 0-1.43.02-2.14"/></g></g></g></svg>
